!!!OTL: SEID NUR LUSTIG UND FROEHLICH
!!!ARE: Europa, Mitteleuropa, Deutschland, Hessen, Frankfurt a.M.
!!!SCT: E1609
!!!YEM: Copyright 1995, estate of Helmut Schaffrath.
**kern
*ICvox
*Ivox
*M3/4
*k[f#]
*G:
=1
{8g
8b
4dd
8dd
8cc
=2
4b
4cc
4dd}
=3
{4dd
8ee
8dd
8cc
8b
=4
4a
4f#
4d}
=5
{8dd
8ee
8dd
8cc
4b
=6
8dd
8ee
8dd
8cc
4b}
=7
{4a
4a
4a
=8
4b
2dd}
=9
{4cc
4b
4a
=10
2g
4r}
==
!!!AGN: Staende -, Handwerker -, Gesellen - Lied, Wanderschaft
!!!ONB: ESAC (Essen Associative Code) Database: ERK3
!!!AMT: simple triple
!!!AIN: vox
!!!EED: Helmut Schaffrath
!!!EEV: 1.0
*-
